X: 1
P: Whistle O'er the Lave O't
R: strathspey
C: Hardie, from B. McOwen 1995
C: arr. T. Traub 3-26-2006
C: used for "Seann Truibhas" dance
C: also A modal, Irish
M: 4/4
L: 1/8
K: G
R: strathspey
D|"G"G>DE<G B>A B2|d>eB<g "C"AG E2|"G"G>DE<G B>AB<g|G<GB>G "D"A2 "G"G2|"G"G>DE<G B>A B2|de/f/ g>B "C"AG E2|
"G"G>DE<G B>AB<g|G<GB>G "D"A2 "G"G ||"G"de/f/ g>f ed B2|d>eB<g "C"AG E2|de/f/ g>f e>dB<g|
"G"G<GB>G "D"A2 "G"G2| "G"de/f/ g>f ed B2|de/f/ g>b "C"a>ge>f |"G"gG "D"A2 "G"G |]



